school/img/country/EG.svg

<svg width="13" height="12" viewBox="0 0 13 12" fill="none" xmlns="http://www.w3.org/2000/svg">
<rect x="0.25" y="0.25" width="12.5" height="11.5" rx="1.75" fill="white" stroke="#F5F5F5" stroke-width="0.5"/>
<mask id="mask0" mask-type="alpha" maskUnits="userSpaceOnUse" x="0" y="0" width="13" height="12">
<rect x="0.25" y="0.25" width="12.5" height="11.5" rx="1.75" fill="white" stroke="white" stroke-width="0.5"/>
</mask>
<g mask="url(#mask0)">
<path fill-rule="evenodd" clip-rule="evenodd" d="M0 4H13V0H0V4Z" fill="#E41D33"/>
<path fill-rule="evenodd" clip-rule="evenodd" d="M0 12H13V8H0V12Z" fill="#262626"/>
<path d="M5.57009 5.72027L5.79404 6.29909L5.66339 6.14745C5.51528 6.27506 5.28573 6.16983 5.28573 5.97433V5.26105C5.28573 5.21376 5.31142 5.17248 5.3496 5.1504L5.57009 5.72027ZM6.80794 5.71965L6.80818 5.72027L6.80822 5.72036L6.80825 5.72044L6.80828 5.72052L6.80829 5.72053L6.9422 6.06665H6.80954H6.52382H6.4762H6.19049H6.04479L6.18764 5.7306L6.18767 5.73053L6.18767 5.73053L6.1877 5.73047L6.18773 5.73039L6.18809 5.72955L6.19033 5.72441L6.2001 5.7024C6.20888 5.68288 6.22197 5.65441 6.23859 5.62001C6.27216 5.55054 6.31862 5.46004 6.37177 5.37137C6.41859 5.29326 6.46497 5.22613 6.50669 5.17745C6.5474 5.22418 6.59228 5.28972 6.63731 5.3673C6.68785 5.45439 6.73107 5.54352 6.76204 5.61213C6.77736 5.64606 6.78929 5.67411 6.79723 5.69326L6.80599 5.71475L6.80794 5.71965ZM7.20599 6.29909L7.42994 5.72027L7.65042 5.1504C7.68861 5.17248 7.7143 5.21376 7.7143 5.26105V5.97433C7.7143 6.16983 7.48475 6.27506 7.33663 6.14745L7.20599 6.29909ZM6.56742 5.11853C6.56742 5.1186 6.56653 5.11922 6.56476 5.12016C6.56654 5.11893 6.56743 5.11845 6.56742 5.11853ZM6.45086 5.12417C6.44977 5.12362 6.44922 5.12327 6.44921 5.12324L6.45086 5.12417Z" fill="#F4B32E" fill-opacity="0.25" stroke="#C6A846" stroke-width="0.666667"/>
</g>
</svg>

<svg width="13" height="12" fill="none" xmlns="http://www.w3.org/2000/svg"><rect x=".25" y=".25" width="12.5" height="11.5" rx="1.75" fill="#fff" stroke="#F5F5F5" stroke-width=".5"/><mask id="a" maskUnits="userSpaceOnUse" x="0" y="0" width="13" height="12"><rect x=".25" y=".25" width="12.5" height="11.5" rx="1.75" fill="#fff" stroke="#fff" stroke-width=".5"/></mask><g mask="url(#a)"><path fill-rule="evenodd" clip-rule="evenodd" d="M0 4h13V0H0v4z" fill="#E41D33"/><path fill-rule="evenodd" clip-rule="evenodd" d="M0 12h13V8H0v4z" fill="#262626"/><path d="M5.57 5.72l.224.58-.13-.153a.229.229 0 01-.378-.173v-.713c0-.047.025-.089.064-.11l.22.57zm1.238 0h0l.134.347h-.897l.143-.336h0V5.73l.002-.006.01-.022a3.359 3.359 0 01.172-.33c.047-.079.093-.146.135-.195.04.047.085.113.13.19a2.77 2.77 0 01.16.326l.009.022.002.005zm.398.58l.224-.58.22-.57a.128.128 0 01.064.111v.713c0 .196-.23.301-.377.173l-.131.152zm-.639-1.181l-.002.001a.013.013 0 01.002-.001zm-.116.005h-.002.002z" fill="#F4B32E" fill-opacity=".25" stroke="#C6A846" stroke-width=".667"/></g></svg>
